.local/share/icons/Gruvbox-Plus-Dark/panel/16/firewall-applet.svg

<svg xmlns="http://www.w3.org/2000/svg" width="16" height="16" version="1">
 <defs>
  <style id="current-color-scheme" type="text/css">
   .ColorScheme-Text { color:#ebdbb2; } .ColorScheme-Highlight { color:#458588; }
  </style>
 </defs>
 <path style="fill:currentColor" class="ColorScheme-Text" d="M 7.9355469 1.0117188 L 2.1328125 3.0488281 C 2.0536125 3.0768274 2 3.4645676 2 3.5488281 C 2 12.000284 7.9692063 14.996635 8 15 C 8 15 14 12.000284 14 3.5488281 C 14 3.4645676 13.946045 3.0768274 13.867188 3.0488281 L 8.0644531 1.0117188 C 8.0215961 0.99658165 7.9784036 0.99658165 7.9355469 1.0117188 z M 8 3.109375 L 11.851562 4.4609375 C 11.544524 9.1886427 9.3588323 11.634014 8.0390625 12.599609 C 7.6051694 12.264987 7.083349 11.834815 6.5292969 11.166016 C 5.4009719 9.8040079 4.3706233 7.6036785 4.15625 4.4589844 L 8 3.109375 z"/>
 <path style="fill:none" class="ColorScheme-Text" d="m 7.9348571,1.0113528 -5.8026,1.7381468 C 2.0530571,2.7774989 2,3.1643274 2,3.2485879 2,5.3242142 2.5479714,7.7245455 3.5033428,9.8323711 4.2782857,11.542081 5.6718285,13.822278 7.9091428,14.978125 7.9382857,14.992125 7.9691428,15 8,15 c 0.030857,0 0.061714,-0.0079 0.09,-0.02187 2.238,-1.155847 3.631714,-3.436044 4.406571,-5.1457539 C 13.452286,7.7236705 14,5.3239518 14,3.2485879 14,3.1643274 13.946857,2.7774989 13.868,2.7494996 L 8.0651428,1.0113528 c -0.042857,-0.0151371 -0.087429,-0.0151371 -0.1302857,0 z"/>
</svg>

<svg width="16" height="16" version="1.1" xmlns="http://www.w3.org/2000/svg">
  <defs>
    <style id="current-color-scheme" type="text/css">.ColorScheme-Text { color:#ebdbb2; } .ColorScheme-Highlight { color:#458588; } .ColorScheme-NeutralText { color:#fe8019; } .ColorScheme-PositiveText { color:#689d6a; } .ColorScheme-NegativeText { color:#fb4934; }</style>
  </defs>
  <path class="ColorScheme-Text" d="m7.936 1.012-5.803 2.037c-0.0792 0.028-0.1328 0.4157-0.1328 0.5 0 8.451 5.969 11.45 6 11.45 0 0 6-3 6-11.45 0-0.08426-0.05396-0.472-0.1328-0.5l-5.803-2.037c-0.04286-0.01514-0.08605-0.01514-0.1289 0zm0.06445 2.098 3.852 1.352c-0.307 4.728-2.493 7.173-3.812 8.139-0.4339-0.3346-0.9557-0.7648-1.51-1.434-1.128-1.362-2.159-3.562-2.373-6.707l3.844-1.35z" fill="currentColor"/>
  <path class="ColorScheme-Text" d="m7.935 1.011-5.803 1.738c-0.0792 0.028-0.1323 0.4148-0.1323 0.4991 0 2.076 0.548 4.476 1.503 6.584 0.7749 1.71 2.168 3.99 4.406 5.146 0.02914 0.014 0.06 0.02188 0.09086 0.02188 0.03086 0 0.06171-0.0079 0.09-0.02187 2.238-1.156 3.632-3.436 4.407-5.146 0.9557-2.109 1.503-4.508 1.503-6.584 0-0.08426-0.05314-0.4711-0.132-0.4991l-5.803-1.738c-0.04286-0.01514-0.08743-0.01514-0.1303 0z" fill="none"/>
</svg>
